X: 6
T: The Old Copperplate
R: reel
M: 4/4
L: 1/8
K: Ador
|:"Am" A2 EA cA ~A2 |aged cA ~A2 |"G" G2 DG BGBd| gedc BAGB|
"Am" A2 EA cA ~A2| aged cAGB| "G"ABcd efge| aged "Am"cA ~A2:|
|:"Am" ageg a2 eg|aged cA ~A2|"G" gfef g2 ef|gedc BG ~G2|
  "Am" ageg a2 eg| aged cAGB| "G"ABcd efge|aged "Am"cA ~A2:|

%% scale 0.87
%%newpage
%% header "Pizza Wizards - Sweeney's Buttermilk / Cooley's		$P"

